X:90
T:Lick is the Firtmatish, The
T:


*****************************


17300 2 1.2634968 

<start>
Z:id:hn-recop-34
M:C|
K:D
AD|AGEF EAFA|D2FA dcBA|GBcd efge|
B2dB cBAB|cAGB ADFA|defd e2dB|1 AFFA 


*****************************


17400 2 1.413464 

<start>
Z:Tad Doinly Rean Yands (19. See also played in Gillint
D:version S
Z:id:hn-cornan-5
M:C|
K:Dmix



*****************************


17500 2 2.1719222 

<starth-par the the in Mardh: Balghe
T:Hudmeng, The
R:set dance
H:Seuftie let of Pitw varagd "Cond, Cown 


*****************************


17600 2 1.6823863 

<start|athpe eac vardien
Z:id:hn-setdance-1
M:6/8
I:viripe tune vessinc Bloned's in bather, ig the of tub


*****************************


17700 2 1.233744 

<start Murich is aull version of se play at of grick played |9
D:D EFEF DFD DBdF dBE E2B, |
ZD.DEF G2~E2 


*****************************


17800 2 0.99669784 

<start>
